static/logos/mobbin-glyph-color.svg

<svg width="50" height="48" viewBox="0 0 50 48" fill="none" xmlns="http://www.w3.org/2000/svg">
<path fill-rule="evenodd" clip-rule="evenodd" d="M39.9226 1.47378C39.7358 1.45847 39.5426 1.49785 39.368 1.59863L24.8885 9.95844L10.4088 1.59863C10.25 1.50692 10.0757 1.46606 9.90494 1.47098C9.73413 1.46606 9.5599 1.50692 9.40106 1.59863L1.96115 5.89405C1.67021 6.06204 1.50115 6.36005 1.485 6.67232C1.47432 6.72945 1.46875 6.78838 1.46875 6.8486V40.7348C1.46875 40.7841 1.4725 40.8326 1.47972 40.88C1.45756 41.2306 1.63046 41.5801 1.95526 41.7676L9.39516 46.0631C9.57723 46.1682 9.77956 46.2065 9.97374 46.1856C10.1679 46.2065 10.3702 46.1682 10.5523 46.0631L17.9921 41.7676C18.1495 41.6769 18.2711 41.5481 18.3523 41.3996C18.4502 41.2496 18.5073 41.0704 18.5073 40.8779V24.5681L24.5729 28.07C24.7474 28.1707 24.9405 28.2101 25.1273 28.1948C25.3139 28.2101 25.507 28.1707 25.6815 28.07L31.5365 24.6896V40.8779C31.5365 40.9691 31.5493 41.0572 31.5732 41.1407C31.6277 41.3954 31.786 41.6271 32.0293 41.7676L39.4692 46.0631C39.6477 46.1662 39.8457 46.205 40.0364 46.1868C40.227 46.205 40.4249 46.1662 40.6035 46.0631L48.0435 41.7676C48.3715 41.5782 48.5446 41.2234 48.5182 40.8693C48.5243 40.8253 48.5276 40.7804 48.5276 40.7347V6.8486C48.5276 6.54488 48.3857 6.27428 48.1646 6.09945C48.0962 6.01954 48.0132 5.94967 47.9168 5.89405L40.477 1.59863C40.3024 1.49785 40.1093 1.45847 39.9226 1.47378ZM46.6185 40.3859V7.83144L25.2042 20.195C25.0461 20.2863 24.8729 20.3272 24.7029 20.3228C24.5329 20.3272 24.3596 20.2863 24.2015 20.195L3.37782 8.17242V40.3846L9.105 43.6912V18.7803C9.105 18.511 9.21654 18.2678 9.39596 18.0943C9.67875 17.701 10.2192 17.5785 10.6476 17.8259L25.1271 26.1856L39.6068 17.8259C40.0633 17.5622 40.6471 17.7187 40.9107 18.1753C40.954 18.2503 40.9861 18.3288 41.0073 18.4088C41.0555 18.5231 41.0823 18.6485 41.0823 18.7803V43.5822L46.6185 40.3859ZM39.1732 43.6878L33.4457 40.3809V23.6962C33.4457 23.6606 33.4437 23.6254 33.4399 23.5907L39.1732 20.2806V43.6878ZM16.5982 40.3681V23.6962C16.5982 23.6219 16.6067 23.5496 16.6227 23.48L11.0141 20.2419V43.5921L16.5982 40.3681ZM45.1274 6.48794L24.7029 18.28L4.51453 6.62428L9.90494 3.51213L24.334 11.8428C24.5086 11.9435 24.7017 11.9829 24.8885 11.9676C25.0752 11.9829 25.2683 11.9435 25.4427 11.8428L39.9226 3.48294L45.1274 6.48794Z" fill="black"/>
<path d="M39.923 1.47377L39.8929 1.8402L39.923 1.84266L39.953 1.8402L39.923 1.47377ZM24.8889 9.95844L24.7051 10.2768L24.8889 10.383L25.0727 10.2768L24.8889 9.95844ZM9.9054 1.47098L9.8948 1.83848L9.9054 1.83877L9.91599 1.83848L9.9054 1.47098ZM1.48546 6.67232L1.84686 6.73979L1.85134 6.71573L1.85261 6.6913L1.48546 6.67232ZM1.48018 40.88L1.84711 40.9032L1.84961 40.8637L1.84362 40.8246L1.48018 40.88ZM9.97419 46.1856L10.0135 45.8201L9.97419 45.8159L9.93489 45.8201L9.97419 46.1856ZM18.3527 41.3996L18.0449 41.1984L18.037 41.2106L18.0301 41.2232L18.3527 41.3996ZM18.5077 24.5681L18.6916 24.2497L18.1401 23.9312V24.5681H18.5077ZM25.1277 28.1949L25.1577 27.8284L25.1276 27.826L25.0976 27.8284L25.1277 28.1949ZM31.537 24.6896H31.9047V24.0528L31.3532 24.3712L31.537 24.6896ZM31.5736 41.1407L31.9332 41.0637L31.9305 41.0516L31.9271 41.0397L31.5736 41.1407ZM40.0369 46.1868L40.0717 45.8209L40.0369 45.8175L40.0019 45.8209L40.0369 46.1868ZM48.5186 40.8693L48.1547 40.8179L48.1491 40.8572L48.152 40.8966L48.5186 40.8693ZM48.1651 6.09945L47.886 6.33867L47.9091 6.36573L47.937 6.38783L48.1651 6.09945ZM46.6189 40.3859L46.8027 40.7043L46.9866 40.5981V40.3859H46.6189ZM46.6189 7.83144H46.9866V7.19466L46.4351 7.51305L46.6189 7.83144ZM24.7033 20.3228L24.7129 19.9547L24.6938 19.9551L24.7033 20.3228ZM3.37828 8.17242L3.56211 7.85403L3.01064 7.53564V8.17242H3.37828ZM3.37828 40.3846H3.01064V40.5968L3.19446 40.7029L3.37828 40.3846ZM9.10546 43.6912L8.92164 44.0096L9.47311 44.3279V43.6912H9.10546ZM9.39642 18.0943L9.65203 18.3584L9.67568 18.3356L9.69489 18.3088L9.39642 18.0943ZM25.1276 26.1856L24.9438 26.504L25.1276 26.6101L25.3114 26.504L25.1276 26.1856ZM41.0077 18.4088L40.6523 18.5029L40.6589 18.5281L40.6691 18.5521L41.0077 18.4088ZM41.0827 43.5822H40.7151V44.219L41.2666 43.9006L41.0827 43.5822ZM33.4461 40.3809H33.0785V40.5932L33.2623 40.6993L33.4461 40.3809ZM39.1736 43.6878L38.9898 44.0062L39.5413 44.3246V43.6878H39.1736ZM33.4404 23.5907L33.2566 23.2723L33.0486 23.3923L33.0749 23.6309L33.4404 23.5907ZM39.1736 20.2806H39.5413V19.6438L38.9898 19.9622L39.1736 20.2806ZM16.5986 40.3681L16.7824 40.6865L16.9663 40.5803V40.3681H16.5986ZM16.6232 23.48L16.9814 23.5629L17.0427 23.2978L16.807 23.1616L16.6232 23.48ZM11.0145 20.2419L11.1984 19.9235L10.6469 19.6051V20.2419H11.0145ZM11.0145 43.5921H10.6469V44.2288L11.1984 43.9104L11.0145 43.5921ZM24.7033 18.28L24.5195 18.5984L24.7033 18.7046L24.8872 18.5984L24.7033 18.28ZM45.1279 6.48794L45.3117 6.80633L45.8632 6.48794L45.3117 6.16955L45.1279 6.48794ZM4.51499 6.62427L4.33117 6.30589L3.77969 6.62427L4.33117 6.94267L4.51499 6.62427ZM9.9054 3.51213L10.0892 3.19373L9.9054 3.0876L9.72158 3.19373L9.9054 3.51213ZM24.8889 11.9676L24.9189 11.6012L24.8889 11.5988L24.8589 11.6012L24.8889 11.9676ZM39.923 3.48294L40.1069 3.16454L39.923 3.05841L39.7392 3.16454L39.923 3.48294ZM39.5523 1.91702C39.6601 1.8548 39.7783 1.8308 39.8929 1.8402L39.953 1.10737C39.6942 1.08613 39.4261 1.1409 39.1846 1.28023L39.5523 1.91702ZM25.0727 10.2768L39.5523 1.91702L39.1846 1.28023L24.7051 9.64005L25.0727 10.2768ZM10.2255 1.91702L24.7051 10.2768L25.0727 9.64005L10.5931 1.28023L10.2255 1.91702ZM9.91599 1.83848C10.0207 1.83545 10.1273 1.86035 10.2255 1.91702L10.5931 1.28023C10.3736 1.1535 10.1317 1.09666 9.8948 1.10348L9.91599 1.83848ZM9.58534 1.91702C9.6835 1.86035 9.79015 1.83545 9.8948 1.83848L9.91599 1.10348C9.67905 1.09666 9.43721 1.1535 9.21769 1.28023L9.58534 1.91702ZM2.14543 6.21245L9.58534 1.91702L9.21769 1.28023L1.77778 5.57567L2.14543 6.21245ZM1.85261 6.6913C1.86259 6.49819 1.96687 6.31554 2.14543 6.21245L1.77778 5.57567C1.37445 5.80854 1.1406 6.22192 1.1183 6.65333L1.85261 6.6913ZM1.83686 6.8486C1.83686 6.81111 1.84033 6.77477 1.84686 6.73979L1.12405 6.60483C1.10925 6.68411 1.10156 6.76563 1.10156 6.8486H1.83686ZM1.83686 40.7348V6.8486H1.10156V40.7348H1.83686ZM1.84362 40.8246C1.83919 40.7954 1.83686 40.7656 1.83686 40.7348H1.10156C1.10156 40.8028 1.10673 40.8698 1.11675 40.9354L1.84362 40.8246ZM2.13955 41.4493C1.94031 41.3343 1.83342 41.1197 1.84711 40.9032L1.11327 40.8568C1.08263 41.3413 1.32153 41.826 1.7719 42.086L2.13955 41.4493ZM9.57944 45.7447L2.13955 41.4493L1.7719 42.086L9.2118 46.3815L9.57944 45.7447ZM9.93489 45.8201C9.81559 45.8329 9.69178 45.8096 9.57944 45.7447L9.2118 46.3815C9.46362 46.5269 9.74444 46.5801 10.0135 46.5512L9.93489 45.8201ZM10.3689 45.7447C10.2566 45.8096 10.1328 45.8329 10.0135 45.8201L9.93489 46.5512C10.2039 46.5801 10.4847 46.5269 10.7366 46.3815L10.3689 45.7447ZM17.8088 41.4493L10.3689 45.7447L10.7366 46.3815L18.1764 42.086L17.8088 41.4493ZM18.0301 41.2232C17.9804 41.3143 17.906 41.3931 17.8088 41.4493L18.1764 42.086C18.3938 41.9606 18.5627 41.7818 18.6754 41.5757L18.0301 41.2232ZM18.1401 40.8779C18.1401 40.9969 18.1051 41.1065 18.0449 41.1984L18.6605 41.6006C18.7964 41.3928 18.8754 41.144 18.8754 40.8779H18.1401ZM18.1401 24.5681V40.8779H18.8754V24.5681H18.1401ZM24.7572 27.7516L18.6916 24.2497L18.3239 24.8865L24.3895 28.3884L24.7572 27.7516ZM25.0976 27.8284C24.983 27.8378 24.8648 27.8138 24.7572 27.7516L24.3895 28.3884C24.6308 28.5278 24.8989 28.5825 25.1577 28.5613L25.0976 27.8284ZM25.4982 27.7516C25.3904 27.8138 25.2723 27.8378 25.1577 27.8284L25.0977 28.5613C25.3564 28.5825 25.6245 28.5276 25.8658 28.3884L25.4982 27.7516ZM31.3532 24.3712L25.4982 27.7516L25.8658 28.3884L31.7208 25.0079L31.3532 24.3712ZM31.9047 40.8779V24.6896H31.1694V40.8779H31.9047ZM31.9271 41.0397C31.9126 40.9888 31.9047 40.9346 31.9047 40.8779H31.1694C31.1694 41.0035 31.187 41.1257 31.2201 41.2418L31.9271 41.0397ZM32.2136 41.4493C32.0639 41.3628 31.9669 41.221 31.9332 41.0637L31.2142 41.2178C31.2897 41.57 31.5088 41.8913 31.846 42.086L32.2136 41.4493ZM39.6535 45.7447L32.2136 41.4493L31.846 42.086L39.2858 46.3815L39.6535 45.7447ZM40.0019 45.8209C39.8848 45.8321 39.7636 45.8082 39.6535 45.7447L39.2858 46.3815C39.5327 46.524 39.8074 46.5779 40.0717 46.5528L40.0019 45.8209ZM40.4201 45.7447C40.3099 45.8082 40.1888 45.8321 40.0717 45.8209L40.0019 46.5528C40.2661 46.5779 40.541 46.524 40.7877 46.3815L40.4201 45.7447ZM47.8601 41.4493L40.4201 45.7447L40.7877 46.3815L48.2277 42.086L47.8601 41.4493ZM48.152 40.8966C48.1683 41.1153 48.0613 41.3331 47.8601 41.4493L48.2277 42.086C48.6826 41.8234 48.9219 41.3315 48.8852 40.8419L48.152 40.8966ZM48.1604 40.7347C48.1604 40.7632 48.1585 40.791 48.1547 40.8179L48.8827 40.9206C48.8913 40.8597 48.8957 40.7976 48.8957 40.7347H48.1604ZM48.1604 6.8486V40.7347H48.8957V6.8486H48.1604ZM47.937 6.38783C48.0738 6.49592 48.1604 6.66204 48.1604 6.8486H48.8957C48.8957 6.42772 48.6986 6.05263 48.3932 5.81108L47.937 6.38783ZM47.7335 6.21245C47.7933 6.24698 47.8442 6.28992 47.886 6.33867L48.4444 5.86025C48.3491 5.74916 48.2341 5.65238 48.1011 5.57567L47.7335 6.21245ZM40.2936 1.91702L47.7335 6.21245L48.1011 5.57567L40.6613 1.28023L40.2936 1.91702ZM39.953 1.8402C40.0676 1.8308 40.1858 1.8548 40.2936 1.91702L40.6613 1.28023C40.4199 1.1409 40.1519 1.08615 39.8929 1.10737L39.953 1.8402ZM46.9866 40.3859V7.83144H46.2513V40.3859H46.9866ZM46.4351 7.51305L25.0208 19.8766L25.3885 20.5134L46.8027 8.14983L46.4351 7.51305ZM25.0208 19.8766C24.9232 19.9329 24.817 19.9575 24.7129 19.9547L24.6938 20.6903C24.9295 20.6965 25.1701 20.6396 25.3885 20.5134L25.0208 19.8766ZM24.6938 19.9551C24.5897 19.9579 24.4835 19.9329 24.3858 19.8766L24.0182 20.5134C24.2366 20.6396 24.4772 20.6965 24.7129 20.6903L24.6938 19.9551ZM24.3858 19.8766L3.56211 7.85403L3.19446 8.49082L24.0182 20.5134L24.3858 19.8766ZM3.01064 8.17242V40.3846H3.74593V8.17242H3.01064ZM3.19446 40.7029L8.92164 44.0096L9.28928 43.3728L3.56211 40.0662L3.19446 40.7029ZM9.47311 43.6912V18.7803H8.73781V43.6912H9.47311ZM9.47311 18.7803C9.47311 18.6147 9.54125 18.4656 9.65203 18.3584L9.1408 17.83C8.89275 18.0698 8.73781 18.4073 8.73781 18.7803H9.47311ZM9.69489 18.3088C9.86853 18.0673 10.201 17.9922 10.4642 18.1443L10.8318 17.5075C10.2383 17.1647 9.48989 17.3346 9.09793 17.8796L9.69489 18.3088ZM10.4642 18.1443L24.9438 26.504L25.3114 25.8672L10.8318 17.5075L10.4642 18.1443ZM25.3114 26.504L39.7911 18.1443L39.4235 17.5075L24.9438 25.8672L25.3114 26.504ZM39.7911 18.1443C40.0719 17.9822 40.4307 18.0784 40.5927 18.3591L41.2296 17.9915C40.8645 17.359 40.0558 17.1423 39.4235 17.5075L39.7911 18.1443ZM40.5927 18.3591C40.6198 18.4057 40.6394 18.454 40.6523 18.5029L41.3632 18.3148C41.3338 18.2037 41.2894 18.095 41.2296 17.9915L40.5927 18.3591ZM40.6691 18.5521C40.6986 18.6218 40.7151 18.6987 40.7151 18.7803H41.4504C41.4504 18.5985 41.4135 18.4243 41.3463 18.2656L40.6691 18.5521ZM40.7151 18.7803V43.5822H41.4504V18.7803H40.7151ZM41.2666 43.9006L46.8027 40.7043L46.4351 40.0675L40.8989 43.2638L41.2666 43.9006ZM33.2623 40.6993L38.9898 44.0062L39.3574 43.3693L33.6299 40.0625L33.2623 40.6993ZM33.0785 23.6962V40.3809H33.8138V23.6962H33.0785ZM33.0749 23.6309C33.0773 23.6522 33.0785 23.6741 33.0785 23.6962H33.8138C33.8138 23.6471 33.8111 23.5985 33.8058 23.5506L33.0749 23.6309ZM38.9898 19.9622L33.2566 23.2723L33.6242 23.9091L39.3574 20.599L38.9898 19.9622ZM39.5413 43.6878V20.2806H38.806V43.6878H39.5413ZM16.231 23.6962V40.3681H16.9663V23.6962H16.231ZM16.2651 23.3971C16.2427 23.4935 16.231 23.5938 16.231 23.6962H16.9663C16.9663 23.65 16.9716 23.6054 16.9814 23.5629L16.2651 23.3971ZM10.8307 20.5603L16.4394 23.7984L16.807 23.1616L11.1984 19.9235L10.8307 20.5603ZM11.3822 43.5921V20.2419H10.6469V43.5921H11.3822ZM16.4148 40.0497L10.8307 43.2737L11.1984 43.9104L16.7824 40.6865L16.4148 40.0497ZM24.8872 18.5984L45.3117 6.80633L44.9441 6.16955L24.5195 17.9616L24.8872 18.5984ZM4.33117 6.94267L24.5195 18.5984L24.8872 17.9616L4.69881 6.30589L4.33117 6.94267ZM9.72158 3.19373L4.33117 6.30589L4.69881 6.94267L10.0892 3.83052L9.72158 3.19373ZM24.5183 11.5244L10.0892 3.19373L9.72158 3.83052L24.1507 12.1612L24.5183 11.5244ZM24.8589 11.6012C24.7444 11.6106 24.6261 11.5866 24.5183 11.5244L24.1507 12.1612C24.392 12.3006 24.6601 12.3553 24.9189 12.3341L24.8589 11.6012ZM25.2594 11.5244C25.1517 11.5866 25.0335 11.6106 24.9189 11.6012L24.8589 12.3341C25.1177 12.3553 25.3858 12.3006 25.627 12.1612L25.2594 11.5244ZM39.7392 3.16454L25.2594 11.5244L25.627 12.1612L40.1069 3.80132L39.7392 3.16454ZM45.3117 6.16955L40.1069 3.16454L39.7392 3.80132L44.9441 6.80633L45.3117 6.16955Z" fill="black"/>
</svg>

<svg xmlns="http://www.w3.org/2000/svg" width="66.667" height="64" fill="none" viewBox="0 0 50 48"><path fill="#000" fill-rule="evenodd" d="M39.923 1.474a.95.95 0 0 0-.555.125l-14.48 8.36-14.48-8.36a.95.95 0 0 0-.503-.128.95.95 0 0 0-.504.128l-7.44 4.295a.954.954 0 0 0-.476.778.959.959 0 0 0-.016.177v33.886c0 .05.003.098.01.145-.021.35.151.7.476.888l7.44 4.295a.95.95 0 0 0 .579.123.95.95 0 0 0 .578-.123l7.44-4.295a.949.949 0 0 0 .36-.368.951.951 0 0 0 .155-.522v-16.31l6.066 3.502c.174.1.367.14.554.125a.95.95 0 0 0 .555-.125l5.855-3.38v16.188c0 .091.012.18.036.263a.952.952 0 0 0 .456.627l7.44 4.295a.95.95 0 0 0 .567.124.95.95 0 0 0 .567-.124l7.44-4.295a.955.955 0 0 0 .475-.899.98.98 0 0 0 .01-.134V6.849a.953.953 0 0 0-.363-.75.95.95 0 0 0-.248-.205l-7.44-4.295a.95.95 0 0 0-.554-.125Zm6.695 38.912V7.83L25.204 20.195a.95.95 0 0 1-.501.128.95.95 0 0 1-.502-.128L3.378 8.172v32.213l5.727 3.306v-24.91c0-.27.112-.513.291-.687a.955.955 0 0 1 1.252-.268l14.48 8.36 14.479-8.36a.954.954 0 0 1 1.4.583c.049.114.075.24.075.371v24.802l5.536-3.196Zm-7.445 3.302-5.727-3.307V23.696a.969.969 0 0 0-.006-.105l5.733-3.31v23.407Zm-22.575-3.32V23.696c0-.074.009-.146.025-.216l-5.609-3.238v23.35l5.584-3.224Zm28.53-33.88L24.702 18.28 4.515 6.624l5.39-3.112 14.429 8.33c.175.101.368.14.555.126a.95.95 0 0 0 .554-.125l14.48-8.36 5.204 3.005Z" clip-rule="evenodd"/><path fill="#000" d="m39.923 1.474-.03.366.03.003.03-.003-.03-.366ZM24.889 9.958l-.184.319.184.106.184-.106-.184-.319ZM9.905 1.471l-.01.367H9.916l-.01-.367Zm-8.42 5.201.362.068.004-.024.002-.025-.368-.019ZM1.48 40.88l.367.023.003-.04-.006-.038-.364.055Zm8.494 5.306.04-.366-.04-.004-.04.004.04.366Zm8.379-4.786-.308-.202-.008.013-.007.012.323.177Zm.155-16.832.184-.318-.552-.319v.637h.368Zm6.62 3.627.03-.367-.03-.002-.03.002.03.367Zm6.409-3.505h.368v-.637l-.552.318.184.319Zm.037 16.45.36-.076-.004-.012-.003-.012-.353.1Zm8.463 5.047.035-.366-.035-.003-.035.003.035.366Zm8.482-5.318-.364-.051-.006.04.003.039.367-.028ZM48.165 6.1l-.279.24.023.027.028.022.228-.289ZM46.62 40.386l.184.318.184-.106v-.212h-.368Zm0-32.555h.368v-.636l-.552.318.184.318ZM24.703 20.323l.01-.368h-.02l.01.368ZM3.378 8.173l.184-.319-.551-.318v.636h.367Zm0 32.212h-.367v.212l.183.106.184-.318Zm5.727 3.306-.183.319.551.318v-.637h-.368Zm.291-25.597.256.264.024-.022.019-.027-.299-.215Zm15.732 8.092-.184.318.184.106.183-.106-.183-.318Zm15.88-7.777-.356.094.007.025.01.024.339-.143Zm.075 25.173h-.368v.637l.552-.318-.184-.319Zm-7.637-3.201h-.367v.212l.183.106.184-.318Zm5.728 3.307-.184.318.551.319v-.637h-.367ZM33.44 23.59l-.183-.319-.208.12.026.239.365-.04Zm5.734-3.31h.367v-.637l-.551.318.184.319ZM16.599 40.368l.183.319.184-.107v-.212H16.6Zm.024-16.888.358.083.062-.265-.236-.136-.184.318Zm-5.609-3.238.184-.319-.551-.318v.637h.367Zm0 23.35h-.367v.637l.551-.319-.184-.318Zm13.69-25.312-.184.318.183.107.184-.107-.184-.318ZM45.127 6.488l.184.318.551-.318-.551-.318-.184.318Zm-40.613.136-.184-.318-.551.318.551.319.184-.319Zm5.39-3.112.184-.318-.184-.106-.183.106.183.318Zm14.984 8.456.03-.367-.03-.002-.03.002.03.367Zm15.034-8.485.184-.318-.184-.107-.184.107.184.318Zm-.37-1.566a.583.583 0 0 1 .34-.077l.06-.733a1.318 1.318 0 0 0-.768.173l.367.637Zm-14.48 8.36 14.48-8.36-.368-.637-14.48 8.36.368.637Zm-14.848-8.36 14.48 8.36.368-.637-14.48-8.36-.367.637Zm-.309-.079a.582.582 0 0 1 .31.079l.367-.637a1.318 1.318 0 0 0-.698-.177l.021.735Zm-.33.079a.582.582 0 0 1 .309-.079l.021-.735a1.318 1.318 0 0 0-.698.177l.367.637Zm-7.44 4.295 7.44-4.295-.368-.637-7.44 4.296.367.636Zm-.293.48a.586.586 0 0 1 .292-.48l-.367-.636a1.321 1.321 0 0 0-.66 1.077l.735.038Zm-.016.157c0-.038.003-.074.01-.11l-.723-.134c-.015.08-.022.16-.022.244h.735Zm0 33.886V6.849h-.735v33.886h.735Zm.007.09a.597.597 0 0 1-.007-.09h-.735c0 .068.005.135.015.2l.727-.11Zm.296.624a.587.587 0 0 1-.293-.546l-.734-.046c-.03.484.209.969.659 1.229l.368-.637Zm7.44 4.296-7.44-4.296-.368.637 7.44 4.296.367-.637Zm.355.075a.583.583 0 0 1-.356-.075l-.367.637c.252.145.532.198.802.17l-.08-.732Zm.434-.075a.582.582 0 0 1-.355.075l-.08.731c.27.03.55-.024.803-.17l-.368-.636Zm7.44-4.296-7.44 4.296.368.637 7.44-4.296-.368-.637Zm.221-.226a.582.582 0 0 1-.221.226l.367.637c.218-.125.387-.304.5-.51l-.646-.353Zm.11-.345a.582.582 0 0 1-.095.32l.615.403c.136-.208.215-.457.215-.723h-.735Zm0-16.31v16.31h.735v-16.31h-.735Zm6.617 3.184-6.065-3.502-.368.637 6.066 3.501.367-.636Zm.34.076a.582.582 0 0 1-.34-.076l-.367.636c.24.14.509.194.768.173l-.06-.733Zm.401-.076a.582.582 0 0 1-.34.076l-.06.733c.258.021.527-.033.768-.173l-.368-.636Zm5.855-3.38-5.855 3.38.368.636 5.855-3.38-.368-.637Zm.552 16.506V24.69h-.736v16.188h.736Zm.022.162a.59.59 0 0 1-.022-.162h-.736c0 .126.018.248.051.364l.707-.202Zm.287.41a.585.585 0 0 1-.28-.386l-.72.154c.076.352.295.673.632.868l.368-.637Zm7.44 4.295-7.44-4.296-.368.637 7.44 4.296.367-.637Zm.348.076a.583.583 0 0 1-.349-.076l-.367.637c.247.142.521.196.786.17l-.07-.731Zm.418-.076a.583.583 0 0 1-.348.076l-.07.732c.264.025.539-.029.786-.171l-.368-.637Zm7.44-4.296-7.44 4.296.368.637 7.44-4.296-.368-.637Zm.292-.552a.587.587 0 0 1-.292.552l.368.637c.455-.263.694-.755.657-1.244l-.733.055Zm.008-.162a.595.595 0 0 1-.005.083l.728.103a1.33 1.33 0 0 0 .013-.186h-.736Zm0-33.886v33.886h.736V6.849h-.736Zm-.223-.461a.585.585 0 0 1 .223.46h.736c0-.42-.197-.795-.503-1.037l-.456.577Zm-.203-.176c.06.035.11.078.152.127l.558-.479a1.321 1.321 0 0 0-.343-.284l-.367.636Zm-7.44-4.295 7.44 4.295.367-.636-7.44-4.296-.367.637Zm-.341-.077a.583.583 0 0 1 .34.077l.368-.637a1.318 1.318 0 0 0-.768-.173l.06.733Zm7.034 38.546V7.83h-.736v32.555h.736Zm-.552-32.873L25.021 19.877l.367.636L46.803 8.15l-.368-.637ZM25.021 19.877a.582.582 0 0 1-.308.078l-.02.735c.236.006.477-.05.695-.177l-.367-.636Zm-.327.078a.583.583 0 0 1-.308-.078l-.368.636c.219.127.46.183.695.177l-.02-.735Zm-.308-.078L3.562 7.854l-.368.637 20.824 12.022.368-.636ZM3.01 8.172v32.213h.735V8.172H3.01Zm.183 32.53 5.728 3.308.367-.637-5.727-3.307-.368.637Zm6.28 2.99V18.78h-.736v24.911h.735Zm0-24.912c0-.165.067-.314.178-.422l-.511-.528c-.248.24-.403.577-.403.95h.735Zm.22-.471a.587.587 0 0 1 .77-.165l.368-.636a1.322 1.322 0 0 0-1.734.372l.597.429Zm.77-.165 14.48 8.36.367-.637-14.48-8.36-.367.637Zm14.847 8.36 14.48-8.36-.367-.636-14.48 8.36.367.636Zm14.48-8.36a.587.587 0 0 1 .802.215l.637-.368a1.322 1.322 0 0 0-1.806-.483l.367.636Zm.802.215a.58.58 0 0 1 .06.144l.71-.188a1.322 1.322 0 0 0-.133-.324l-.637.368Zm.076.193c.03.07.046.147.046.228h.735c0-.181-.037-.356-.104-.514l-.677.286Zm.046.228v24.802h.735V18.78h-.735Zm.552 25.12 5.536-3.196-.368-.636-5.536 3.196.368.637Zm-8.005-3.2 5.728 3.306.367-.637-5.727-3.306-.368.636Zm-.184-17.004v16.685h.736V23.696h-.736Zm-.003-.065a.585.585 0 0 1 .003.065h.736c0-.049-.003-.098-.008-.145l-.731.08Zm5.915-3.669-5.733 3.31.367.637 5.733-3.31-.367-.637Zm.551 23.726V20.28h-.735v23.407h.735Zm-23.31-19.992v16.672h.735V23.696h-.735Zm.034-.299a1.321 1.321 0 0 0-.034.3h.735c0-.047.006-.092.015-.134l-.716-.166Zm-5.434-2.837 5.608 3.238.368-.636-5.609-3.238-.367.636Zm.551 23.032v-23.35h-.735v23.35h.735Zm5.033-3.542-5.584 3.224.367.636 5.584-3.223-.367-.637Zm8.472-21.452L45.312 6.806l-.368-.636L24.52 17.962l.368.636ZM4.331 6.943 24.52 18.598l.367-.636L4.7 6.306l-.368.637Zm5.39-3.75-5.39 3.113.368.637 5.39-3.112-.367-.637Zm14.797 8.331L10.09 3.194l-.367.637 14.429 8.33.367-.637Zm.34.077a.583.583 0 0 1-.34-.077l-.367.637c.241.14.51.194.768.173l-.06-.733Zm.401-.077a.582.582 0 0 1-.34.077l-.06.733c.259.021.527-.033.768-.173l-.368-.637Zm14.48-8.36-14.48 8.36.368.637 14.48-8.36-.368-.636Zm5.573 3.006-5.205-3.005-.368.636 5.205 3.005.368-.636Z"/></svg>
